!!!ONB: MCCC : IJB0063_03 : Extracted Monophonic Melody
!!!COM: Bach, Johann Sebastian
!!!OPR: Cello Suite No.1
!!!OMV: 3
!!!SCT: BWV 1007
!!!ODT: 1717///
**kern
*thru
*staff1
*IVioloncello
*clefF4
*k[f#]
*G:
*M3/4
*>A
8G
=1
8G
8D
8GG
16B
16c
16d
16c
16B
16A
=2
8B
8D
8GG
16G
16A
8B
8G
=3
8E
8C
8CC
16A
16B
16c
16B
16A
16G
=4
8F#
8D
8DD
16D
16E
16F#
16G
16A
16B
=5
16c
16B
16c
16A
16c
16B
16c
16A
16D
16c
16B
16A
=6
16B
16A
16B
16G
16B
16A
16B
16G
16C
16B
16A
16G
=7
16F#
16A
16d
16D
8G
8BB
8DD
8F#
=8
4.G
16B
16A
16G
16F#
16E
16D
=9
8e
8c#
8A
16B
16c#
16d
16F#
16E
16D
=10
8AA
8d
8c#
16B
16A
16d
16A
16B
16F#
=11
16G
16F#
16G
16E
16G
16F#
16G
16E
16AA
16G
16F#
16E
=12
16F#
16E
16F#
16D
16F#
16E
16F#
16D
16GG
16F#
16E
16D
=13
16d
16c#
16B
16A
8d
16c#
16B
16A
16G
16F#
16E
=14
16D
16E
16D
16F#
16D
16E
16D
16G
16D
16E
16D
16A
=15
16D
16E
16D
16B
16D
16E
16D
16c#
16D
16E
16D
16d
=16
16G
16F#
16E
16D
16C#
16BB
16AA
16G
8.F#
16E
=17
16A
16G
16B
16A
16G
16F#
16E
16D
8AA
8C#
=18
2DD
8r
*>A
8G
=1
8G
8D
8GG
16B
16c
16d
16c
16B
16A
=2
8B
8D
8GG
16G
16A
8B
8G
=3
8E
8C
8CC
16A
16B
16c
16B
16A
16G
=4
8F#
8D
8DD
16D
16E
16F#
16G
16A
16B
=5
16c
16B
16c
16A
16c
16B
16c
16A
16D
16c
16B
16A
=6
16B
16A
16B
16G
16B
16A
16B
16G
16C
16B
16A
16G
=7
16F#
16A
16d
16D
8G
8BB
8DD
8F#
=8
4.G
16B
16A
16G
16F#
16E
16D
=9
8e
8c#
8A
16B
16c#
16d
16F#
16E
16D
=10
8AA
8d
8c#
16B
16A
16d
16A
16B
16F#
=11
16G
16F#
16G
16E
16G
16F#
16G
16E
16AA
16G
16F#
16E
=12
16F#
16E
16F#
16D
16F#
16E
16F#
16D
16GG
16F#
16E
16D
=13
16d
16c#
16B
16A
8d
16c#
16B
16A
16G
16F#
16E
=14
16D
16E
16D
16F#
16D
16E
16D
16G
16D
16E
16D
16A
=15
16D
16E
16D
16B
16D
16E
16D
16c#
16D
16E
16D
16d
=16
16G
16F#
16E
16D
16C#
16BB
16AA
16G
8.F#
16E
=17
16A
16G
16B
16A
16G
16F#
16E
16D
8AA
8C#
=18
2DD
8r
*>B
8A
=19
8A
8F#
8D
16E
16F#
16G
16F#
16E
16D
=20
8d
8F#
8C
16BB
16C
16D
16C
16BB
16AA
=21
16BB
16G
16A
16B
16c
16B
16A
16G
8F#
8d
=22
8B
8G
8GG
16B
16A
16c
16B
16A
16G
=23
8A
8F#
16D#
16A
16B
16c
16B
16A
16G
16F#
=24
8G
8E
8EE
16G
16F#
16A
16G
16F#
16E
=25
16F
16E
16F
16A
16F
16E
16F
16A
16c
16B
16c
16A
=26
[4d#
16d#]
16c
16B
16A
16G
16F#
16A
16D#
=27
8GG
8B
16A
16G
16F#
16E
8BB
8D#
=28
4.EE
16E
16F#
16G
16A
16B
16c
=29
8d
8F
8BB
16E
16F
16G
16F
16E
16D
=30
8E
8C
8CC
16C
16D
16E
16F#
16G
16E
=31
16C#
16G
16A
16G
16A
16G
16C#
16G
16C#
16G
16A
16G
=32
16C
16F#
16A
16F#
16A
16F#
16C
16F#
16C
16F#
16A
16F#
=33
16BB
16D
16E
16F
16GG
16F
16E
16D
16E
16d
16c
16B
=34
16F#
16A
16B
16c
16D
16c
16B
16A
8B
8GG
=35
8CC
16B
16A
16c
16B
16A
16G
8D
8F#
=36
16GG
16AA
16GG
16BB
16GG
16AA
16GG
16C
16GG
16AA
16GG
16D
=37
16GG
16AA
16GG
16E
16GG
16AA
16GG
16F#
16GG
16AA
16GG
16G
=38
16c
16B
16A
16G
16F#
16E
16D
16c
8.B
16A
=39
16d
16c
16d
16B
16d
16c
16d
16B
16E
16d
16c
16B
=40
16c
16B
16c
16A
16c
16B
16c
16A
16D
16c
16B
16A
=41
16B
16A
16B
16G
16C
16B
16A
16G
8D
8F#
=42
2G
8r
*>B
8A
=19
8A
8F#
8D
16E
16F#
16G
16F#
16E
16D
=20
8d
8F#
8C
16BB
16C
16D
16C
16BB
16AA
=21
16BB
16G
16A
16B
16c
16B
16A
16G
8F#
8d
=22
8B
8G
8GG
16B
16A
16c
16B
16A
16G
=23
8A
8F#
16D#
16A
16B
16c
16B
16A
16G
16F#
=24
8G
8E
8EE
16G
16F#
16A
16G
16F#
16E
=25
16F
16E
16F
16A
16F
16E
16F
16A
16c
16B
16c
16A
=26
[4d#
16d#]
16c
16B
16A
16G
16F#
16A
16D#
=27
8GG
8B
16A
16G
16F#
16E
8BB
8D#
=28
4.EE
16E
16F#
16G
16A
16B
16c
=29
8d
8F
8BB
16E
16F
16G
16F
16E
16D
=30
8E
8C
8CC
16C
16D
16E
16F#
16G
16E
=31
16C#
16G
16A
16G
16A
16G
16C#
16G
16C#
16G
16A
16G
=32
16C
16F#
16A
16F#
16A
16F#
16C
16F#
16C
16F#
16A
16F#
=33
16BB
16D
16E
16F
16GG
16F
16E
16D
16E
16d
16c
16B
=34
16F#
16A
16B
16c
16D
16c
16B
16A
8B
8GG
=35
8CC
16B
16A
16c
16B
16A
16G
8D
8F#
=36
16GG
16AA
16GG
16BB
16GG
16AA
16GG
16C
16GG
16AA
16GG
16D
=37
16GG
16AA
16GG
16E
16GG
16AA
16GG
16F#
16GG
16AA
16GG
16G
=38
16c
16B
16A
16G
16F#
16E
16D
16c
8.B
16A
=39
16d
16c
16d
16B
16d
16c
16d
16B
16E
16d
16c
16B
=40
16c
16B
16c
16A
16c
16B
16c
16A
16D
16c
16B
16A
=41
16B
16A
16B
16G
16C
16B
16A
16G
8D
8F#
=42
2G
8r
==
*-
